teeny/outline/pool.svg

<svg width="15" height="15" viewBox="0 0 15 15" fill="none" xmlns="http://www.w3.org/2000/svg">
<path d="M1 12.6C1.65 13.3333 2.65455 14 3.95455 14C6.90909 14 7.5 12 10.4545 12C11.8136 12 13.0545 12.7333 14 13.4667M2.5 12V3.72724C2.5 1.94542 3.85458 0.5 5.63639 0.5M9.5 10V3.63639C9.5 1.85458 10.9 0.5 12.6818 0.5M2.5 4.5H9.5M2.5 8.5H9.5" stroke="black" stroke-miterlimit="10" stroke-linejoin="round"/>
</svg>

<svg viewBox="0 0 15 15" xmlns="http://www.w3.org/2000/svg"><path fill="none" stroke="#000" stroke-linejoin="round" stroke-miterlimit="10" d="M1 12.6c.65.73 1.65 1.4 2.95 1.4 2.95 0 3.54-2 6.49-2 1.35 0 2.6.73 3.54 1.46m-11.5-1.47V3.71C2.48 1.92 3.83.48 5.61.48m3.86 9.5V3.61c0-1.79 1.4-3.14 3.18-3.14m-10.19 4h7m-7 4h7"/></svg>
